src/assets/labels/move.svg

<svg fill="none" height="24" viewBox="0 0 24 24" width="24" xmlns="http://www.w3.org/2000/svg"><g fill="#2990ff"><path d="m14.8284 6.34313 1.4142-1.41421-4.2426-4.242641-4.24265 4.242641 1.41421 1.41421 2.82844-2.82842z"/><path d="m4.92892 16.2426 1.41421-1.4142-2.82842-2.8284 2.82842-2.82844-1.41421-1.41421-4.242641 4.24265z"/><path d="m7.75735 19.0711 4.24265 4.2426 4.2426-4.2426-1.4142-1.4143-2.8284 2.8285-2.82844-2.8285z"/><path d="m17.6568 9.17156 2.8285 2.82844-2.8285 2.8284 1.4143 1.4142 4.2426-4.2426-4.2426-4.24265z"/><path clip-rule="evenodd" d="m12 8c2.2091 0 4 1.79086 4 4 0 2.2091-1.7909 4-4 4-2.20914 0-4-1.7909-4-4 0-2.20914 1.79086-4 4-4zm0 2c1.1046 0 2 .8954 2 2s-.8954 2-2 2-2-.8954-2-2 .8954-2 2-2z" fill-rule="evenodd"/></g></svg>

<svg
  width="24"
  height="24"
  viewBox="0 0 24 24"
  fill="none"
  xmlns="http://www.w3.org/2000/svg"
>
  <path
    d="M14.8284 6.34313L16.2426 4.92892L12 0.686279L7.75735 4.92892L9.17156 6.34313L12 3.51471L14.8284 6.34313Z"
    fill="#2990ff"
  />
  <path
    d="M4.92892 16.2426L6.34313 14.8284L3.51471 12L6.34313 9.17156L4.92892 7.75735L0.686279 12L4.92892 16.2426Z"
    fill="#2990ff"
  />
  <path
    d="M7.75735 19.0711L12 23.3137L16.2426 19.0711L14.8284 17.6568L12 20.4853L9.17156 17.6568L7.75735 19.0711Z"
    fill="#2990ff"
  />
  <path
    d="M17.6568 9.17156L20.4853 12L17.6568 14.8284L19.0711 16.2426L23.3137 12L19.0711 7.75735L17.6568 9.17156Z"
    fill="#2990ff"
  />
  <path
    fill-rule="evenodd"
    clip-rule="evenodd"
    d="M12 8C14.2091 8 16 9.79086 16 12C16 14.2091 14.2091 16 12 16C9.79086 16 8 14.2091 8 12C8 9.79086 9.79086 8 12 8ZM12 10C13.1046 10 14 10.8954 14 12C14 13.1046 13.1046 14 12 14C10.8954 14 10 13.1046 10 12C10 10.8954 10.8954 10 12 10Z"
    fill="#2990ff"
  />
</svg>
